ui/StatusQ/src/assets/img/icons/code.svg

<svg fill="none" height="20" viewBox="0 0 20 20" width="20" xmlns="http://www.w3.org/2000/svg"><path clip-rule="evenodd" d="m8.40549 17.4208 2.00001-15.00002 1.1895.15859-2.00004 15.00003zm-1.82951-12.34499-4.5003 4.49992-.42431.42427.4243.4243 4.50024 4.5.84851-.8485-4.07594-4.0758 4.07599-4.07563zm11.34882 4.49992-4.5003-4.49992-.8485.84856 4.076 4.07563-4.076 4.0758.8485.8485 4.5003-4.5.4243-.4243z" fill="#09101c" fill-rule="evenodd"/></svg>

<svg width="20" height="20" viewBox="0 0 20 20" fill="none" xmlns="http://www.w3.org/2000/svg">
<path fill-rule="evenodd" clip-rule="evenodd" d="M8.40549 17.4208L10.4055 2.42078L11.595 2.57937L9.59496 17.5794L8.40549 17.4208ZM6.57598 5.07581L2.07568 9.57573L1.65137 10L2.07567 10.4243L6.57591 14.9243L7.42442 14.0758L3.34848 10L7.42447 5.92437L6.57598 5.07581ZM17.9248 9.57573L13.4245 5.07581L12.576 5.92437L16.652 10L12.576 14.0758L13.4245 14.9243L17.9248 10.4243L18.3491 10L17.9248 9.57573Z" fill="#09101C"/>
</svg>
